X:1
T:Exactly Like You
C:Jimmy McHugh / Dorothy Fields
R:(Med. Swing)
M:4/4
L:1/4
K:Bb
"Bb" dAcG| BB3|"C7" dAcG| B4 |
"F7" AE GD| FF2 F|"Bb" BB,B,B,-|"Cm7" B,2"F7" z2|
"Bb" dAcG| BB3|"C7" c/2c/2d2d/2A/2-|A/2A3/2 z2 |
"F7" AE GD| FF2 F|"Bb" BB,B,B,-|"Bb7" B,CDF|
"Eb" ccc2-| "Ebm" c=Bd/2c/2_B/2A/2|"Bb" BBB2-| "Bb7" B GAB |
"Eb" eee2-|"Ebm" edf/2e/2d/2c/2|"Bb" dd"Db"AA|"Cm7"cc"F7" GF |
"Bb" d A cG|BB3|"C7" dAcG|B4|
"F7" AE G D| FF2 F|"Bb" B B,B,B,-|"F7" B,2 z2|]
